X:0704
T:Lad if you lo'e me.
M:6/8
L:1/8
Q:3/8=104
N:z3 rests added to make things add up
N:g's sharpened in last line
P:ABA % Aird uses a da capo
I: || || "End" | || || DC
Z:Jack Campin * www.campin.me.uk * 2009
K:D
P:A
d2 d  d2d|d3   Te>de|f2f  f2f|f3 Tg>fg|a3    fga | g3    efg|fag  fed  | ced cBA||
d2 d  d2d|d3    e>de|f2f  f2f|f3 Tg>fg|a3    f>ga| g3    efg|fba  gfe  | d2d z3 ||
P:B
f2 f  f2f|agf   agf |e2e  e2e|gfe gfe |fga   fga |^gab   gab|abc' d'2c'| c'3 b3 ||
d'2d' b2b|c'2c' a2a |f2f ^g2g|a2a aac'|d'2d' b2b | c'2c' a2a|f2f ^g2 g |Ha3  z3 ||
<end>
<start>
